X:1
T:Title
%%score ( 1 2 ) { 3 | 4 }
L:1/8
Q:1/4=115
M:3/4
K:Ab
V:1 treble nm="Grand Piano, Unnamed-000"
V:2 treble 
V:3 bass nm="Choir Pad, Joanna"
V:4 bass 
V:1
 [EA]2 [DF]2 D2 | [FB]2 [EG]2 E2 | [CA]2 [Ec]2 [Ec]2 | B-[DB] [CA]4 | [EA]2 [DF]2 D2 | %5
w: By~Welsh~melody * *|||||
 [FB]2 [EG]2 E2 | [CA]2 [Ec]2 [Ec]2 | B-[DB] [CA]4 | [EA]2 [Ac]2 [Ac]2 | [Be]2 [Ec]2 [EA]2 | %10
w: |||||
 [EA]2 [Ec]2 [Fc]2 | [Ee]2 [EB]4 | [Ec]2 [FA]2 [DF]2 | [FB]2 [EG]2 E2 | [CA]2 [Ec]2 [Ac]2 | %15
w: |||||
 [GB]2 A4- | A4 z2 |] %17
w: ||
V:2
 x6 | x6 | x6 | .E2 z2 z2 | x6 | x6 | x6 | .E2 z2 z2 | x6 | x6 | x6 | x6 | x6 | x6 | x6 | x6 | %16
 x6 |] %17
V:3
 C2 A,2 F,2 | D2 B,2 G,2 | A,2 A,2 A,2 | G,2 A,4 | C2 A,2 F,2 | D2 B,2 G,2 | A,2 A,2 A,2 | %7
 G,2 A,4 | C2 E2 E2 | B,2 C2 C2 | ED C2[K:bass] A,2 | A,2 G,4 | A,2 A,2 A,2 | D2 B,2 G,2 | %14
 A,2 A,2[K:treble] E2 | ED C4- | C4 z2 |] %17
V:4
 A,,2 D,2 D,2 | B,,2 E,2 E,2 | F,2 E,2 E,2 | E,2 A,,4 | A,,2 D,2 D,2 | B,,2 E,2 E,2 | F,2 E,2 E,2 | %7
 E,2 A,,4 | A,,2 A,2 A,2 | G,2 A,2 A,2 | CB, A,2 F,2 | C,D, E,4 | A,,2 D,2 D,2 | B,,2 E,2 E,2 | %14
 F,2 E,2 E,2 | E,2 A,,4- | A,,4 z2 |] %17

